X:140
T: Dave Collins'
Z: B.Black
M: 6/8
L: 1/8
R: jig
K: A
E | A2 A, CEA | B2 B BAF | A2 F ECA, | CEC B,2 C |
A,G,A, CA,C | A,CE FEC | EFA BGE | AcB A2 :|
B | cAc BGB | Acf ece | f2 e cBc | efg f2 g |
agf gfe | fec BGE | FGA BGE | AcB A2 B |
cAc BGB | Acf ece | A2 F ECA, | CDC B,2 C |
A,G,A, CA,C | A,CE FEC | EFA BGE | AcB A2 ||
